public/images/hashed/d8e809863a4726eb4375ba471ed415b9.svg

<?xml version="1.0" encoding="UTF-8"?>
<svg width="80px" height="80px" viewBox="0 0 80 80" version="1.1" xmlns="http://www.w3.org/2000/svg" xmlns:xlink="http://www.w3.org/1999/xlink">
    <!-- Generator: Sketch 64 (93537) - https://sketch.com -->
    <title>Icon-Architecture/64/Arch_AWS-Elemental-MediaLive_64</title>
    <desc>Created with Sketch.</desc>
    <defs>
        <linearGradient x1="0%" y1="100%" x2="100%" y2="0%" id="linearGradient-1">
            <stop stop-color="#C8511B" offset="0%"></stop>
            <stop stop-color="#FF9900" offset="100%"></stop>
        </linearGradient>
    </defs>
    <g id="Icon-Architecture/64/Arch_AWS-Elemental-MediaLive_64" stroke="none" stroke-width="1" fill="none" fill-rule="evenodd">
        <g id="Icon-Architecture-BG/64/Media-Services" fill="url(#linearGradient-1)">
            <rect id="Rectangle" x="0" y="0" width="80" height="80"></rect>
        </g>
        <path d="M49.831938,60.4450687 C50.138936,60.9040645 50.0149368,61.5260589 49.5549399,61.8320561 L40.564,67.8240016 C40.4040011,67.9350006 40.2090024,68 39.9990038,68 C39.7890052,68 39.5940065,67.9350006 39.4330076,67.8240016 L30.4450677,61.8320561 C29.9850708,61.5260589 29.8610716,60.9040645 30.1680695,60.4450687 C30.4740675,59.9850729 31.0930634,59.860074 31.5550603,60.1680712 L38.9990105,65.1310261 L38.9990105,56.0001182 C38.9990105,55.4471141 39.4460075,55.0001182 39.9990038,55.0001182 C40.5520001,55.0001182 40.9989971,55.4471141 40.9989971,56.0001182 L40.9989971,65.1320261 L48.4449473,60.1680712 C48.9049442,59.860074 49.5249401,59.9850729 49.831938,60.4450687 L49.831938,60.4450687 Z M61.9998567,52.4411414 L56.4998934,55.8251107 L50.9999302,52.4411414 L50.9999302,46.5581949 L56.4998934,43.1742257 L61.9998567,46.5581949 L61.9998567,52.4411414 Z M63.5238465,45.1482077 L57.0238899,41.1482441 C56.7018921,40.9502459 56.2978948,40.9502459 55.9758969,41.1482441 L49.4759404,45.1482077 C49.1799424,45.3302061 48.9999436,45.6532032 48.9999436,46.0002 L48.9999436,53.0001364 C48.9999436,53.3471332 49.1799424,53.6691303 49.4759404,53.8511286 L55.9758969,57.8510923 C56.1368959,57.9500914 56.3178947,58.0000909 56.4998934,58.0000909 C56.6818922,58.0000909 56.862891,57.9500914 57.0238899,57.8510923 L63.5238465,53.8511286 C63.8198445,53.6691303 63.9998433,53.3471332 63.9998433,53.0001364 L63.9998433,46.0002 C63.9998433,45.6532032 63.8198445,45.3302061 63.5238465,45.1482077 L63.5238465,45.1482077 Z M29.0000774,52.4411414 L23.5001141,55.8251107 L18.0001509,52.4411414 L18.0001509,46.5581949 L23.5001141,43.1742257 L29.0000774,46.5581949 L29.0000774,52.4411414 Z M31.000064,53.0001364 L31.000064,46.0002 C31.000064,45.6532032 30.8200652,45.3302061 30.5240672,45.1482077 L24.0241106,41.1482441 C23.7021128,40.9502459 23.2981155,40.9502459 22.9761176,41.1482441 L16.4761611,45.1482077 C16.1801631,45.3302061 16.0001643,45.6532032 16.0001643,46.0002 L16.0001643,53.0001364 C16.0001643,53.3471332 16.1801631,53.6691303 16.4761611,53.8511286 L22.9761176,57.8510923 C23.1371166,57.9500914 23.3181154,58.0000909 23.5001141,58.0000909 C23.6821129,58.0000909 23.8631117,57.9500914 24.0241106,57.8510923 L30.5240672,53.8511286 C30.8200652,53.6691303 31.000064,53.3471332 31.000064,53.0001364 L31.000064,53.0001364 Z M16.0001643,37.0002818 L16.0001643,27.0183726 C15.9971643,26.8513741 16.0351641,26.6803756 16.1211635,26.5233771 L16.1211635,26.5233771 L16.1211635,26.5223771 C16.1241635,26.5173771 16.1271634,26.5123772 16.1301634,26.5073772 C16.1301634,26.5063772 16.1311634,26.5063772 16.1311634,26.5053772 C16.2281628,26.3353788 16.3671618,26.20438 16.5281608,26.1183807 L25.5151007,21.1264261 C25.9960974,20.8574286 26.6060934,21.031427 26.8740916,21.5144226 C27.1430898,21.9974182 26.9690909,22.6064127 26.4850942,22.8744102 L19.0601438,27.0003727 L26.4850942,31.1263352 C26.9690909,31.3943328 27.1430898,32.0033272 26.8740916,32.4863229 C26.6060934,32.9673185 25.9960974,33.1433169 25.5151007,32.8743193 L18.0001509,28.6993573 L18.0001509,37.0002818 C18.0001509,37.5522768 17.5531539,38.0002727 17.0001576,38.0002727 C16.4471613,38.0002727 16.0001643,37.5522768 16.0001643,37.0002818 L16.0001643,37.0002818 Z M35.0000372,18.5584495 L40.5000004,15.1744802 L45.9999637,18.5584495 L45.9999637,24.441396 L40.5000004,27.8253652 L35.0000372,24.441396 L35.0000372,18.5584495 Z M33.4760474,25.8513832 L39.9760039,29.8513468 C40.1370029,29.9503459 40.3180017,30.0003455 40.5000004,30.0003455 C40.6819992,30.0003455 40.862998,29.9503459 41.0239969,29.8513468 L47.5239535,25.8513832 C47.8199515,25.6693848 47.9999503,25.3473878 47.9999503,25.0003909 L47.9999503,18.0004545 C47.9999503,17.6534577 47.8199515,17.3304606 47.5239535,17.1484623 L41.0239969,13.1484987 C40.7019991,12.9505004 40.2980018,12.9505004 39.9760039,13.1484987 L33.4760474,17.1484623 C33.1800494,17.3304606 33.0000506,17.6534577 33.0000506,18.0004545 L33.0000506,25.0003909 C33.0000506,25.3473878 33.1800494,25.6693848 33.4760474,25.8513832 L33.4760474,25.8513832 Z M63.9998433,27.0183726 L63.9998433,37.0002818 C63.9998433,37.5522768 63.5528463,38.0002727 62.99985,38.0002727 C62.4468537,38.0002727 61.9998567,37.5522768 61.9998567,37.0002818 L61.9998567,28.6993573 L54.4849069,32.8743193 C54.0039101,33.1433169 53.3949142,32.9683185 53.125916,32.4863229 C52.8569178,32.0033272 53.0309166,31.3943328 53.5149134,31.1263352 L60.9408637,27.0003727 L53.5149134,22.8744102 C53.0309166,22.6064127 52.8569178,21.9974182 53.125916,21.5144226 C53.3949142,21.031427 54.0039101,20.8574286 54.4849069,21.1264261 L63.4718468,26.1183807 C63.6358457,26.20538 63.7768448,26.3403787 63.8738441,26.5143771 C63.9628435,26.6743757 64.0028433,26.8473741 63.9998433,27.0183726 L63.9998433,27.0183726 Z M35.0000372,32.7063209 L47.9599506,39.9682548 L35.0000372,47.2871883 L35.0000372,32.7063209 Z M33.4960473,49.8631649 C33.6510462,49.9541641 33.8260451,50.0001636 34.0000506,50.0001636 C34.1700428,50.0001636 34.3390416,49.957164 34.4920406,49.8701648 L50.4919336,40.835247 C50.8069315,40.6582486 51.0009302,40.3242516 50.9999341,39.9632549 C50.9989302,39.6022582 50.8039315,39.2692612 50.4889336,39.0922628 L34.4890406,30.1273443 C34.1790427,29.9543459 33.8010452,29.9583458 33.4940473,30.1373442 C33.1880493,30.3173426 33.0000506,30.6453396 33.0000506,31.0003364 L33.0000506,49.0001727 C33.0000506,49.3551695 33.1880493,49.6841665 33.4960473,49.8631649 L33.4960473,49.8631649 Z" id="AWS-Elemental-MediaLive_Icon_64_Squid" fill="#FFFFFF"></path>
    </g>
</svg>

<svg xmlns="http://www.w3.org/2000/svg" width="80" height="80"><defs><linearGradient id="a" x1="0%" x2="100%" y1="100%" y2="0%"><stop offset="0%" stop-color="#C8511B"/><stop offset="100%" stop-color="#F90"/></linearGradient></defs><g fill="none" fill-rule="evenodd"><path fill="url(#a)" d="M0 0h80v80H0z"/><path fill="#FFF" d="M49.832 60.445a1 1 0 0 1-.277 1.387l-8.991 5.992a.994.994 0 0 1-1.131 0l-8.988-5.992a1 1 0 1 1 1.11-1.664L39 65.131v-9.13a1 1 0 1 1 2 0v9.131l7.446-4.964a.998.998 0 0 1 1.387.277ZM62 52.441l-5.5 3.384-5.5-3.384v-5.883l5.5-3.384 5.5 3.384v5.883Zm1.524-7.293-6.5-4a.999.999 0 0 0-1.048 0l-6.5 4A1 1 0 0 0 49 46v7c0 .347.18.67.476.851l6.5 4a.999.999 0 0 0 1.048 0l6.5-4a.999.999 0 0 0 .476-.85v-7a1 1 0 0 0-.476-.853ZM29 52.441l-5.5 3.384-5.5-3.384v-5.883l5.5-3.384 5.5 3.384v5.883Zm2 .56v-7a1 1 0 0 0-.476-.853l-6.5-4a.999.999 0 0 0-1.048 0l-6.5 4A1 1 0 0 0 16 46v7c0 .347.18.67.476.851l6.5 4a.999.999 0 0 0 1.048 0l6.5-4a.999.999 0 0 0 .476-.85ZM16 37v-9.983a.99.99 0 0 1 .121-.495l.01-.016v-.002a.997.997 0 0 1 .397-.387l8.987-4.992a.998.998 0 1 1 .97 1.748L19.06 27l7.425 4.126a.999.999 0 1 1-.97 1.748L18 28.7V37a1 1 0 1 1-2 0Zm19-18.443 5.5-3.384 5.5 3.384v5.883l-5.5 3.384-5.5-3.384v-5.883Zm-1.524 7.293 6.5 4a.999.999 0 0 0 1.048 0l6.5-4a.999.999 0 0 0 .476-.85v-7a1 1 0 0 0-.476-.853l-6.5-4a.999.999 0 0 0-1.048 0l-6.5 4A1 1 0 0 0 33 18v7c0 .347.18.67.476.851ZM64 27.018V37a1 1 0 1 1-2 0v-8.3l-7.515 4.174a1 1 0 1 1-.97-1.748L60.94 27l-7.426-4.126a.999.999 0 1 1 .97-1.748l8.987 4.992a.994.994 0 0 1 .528.9Zm-29 5.688 12.96 7.262L35 47.288V32.705Zm-1.504 17.157a.997.997 0 0 0 .996.007l16-9.035a1.002 1.002 0 0 0-.003-1.743l-16-8.965A1.001 1.001 0 0 0 33 31v18c0 .355.188.684.496.863Z"/></g></svg>
